X: 1
T: He's o'er the hills that I lo'e dear
R: jig
Z: John Chambers <jc:trillian.mit.edu>
B: RSCDS Graded #14
M: 6/8
L: 1/8
K: G
E \
| "G"DEG G2G | BAG "C"E2G | "G"DEG G<dB | "D7"BAG "G"G2E \
| "G"DEG G2G | BAG "C"E2e | "G"d2e dBG | "D7"BAG "G"G2 :|
|: B \
| "G"d2e dBG |  BAG "C"E2e | "G"d2e dBG | "D7"BAG "G"G2B \
| "G"d2e dBG |  BAG "C"E2G | "G"DEG G<dB | "D7"BAG "G"G2 :|
